X:570
T:Old Tipperary
R:jig
Z:Transcribed by Dave Marshall
M:6/8
K:G
|: dcA ~G3 | ABA G2e | dcA ~G3 | ADE F2e |
dcA ~G3 | ABA G2g | fdd edd |1 fed cAe :|2 fed cAF
|: GBd ~g3 | gaf ~g3 | dgg dgg | a2g fga |
bag agf | gfe efe | dcA d2e |1 fed cAF :|2 fed cAe |
